X:312
T: Der Spaziergang um Mitternacht (56), S. 179
N: T0201
O: Luxemburg
S: Singendes Volk, Esch-Alzette 1937 posth.]
N: Modulation?, Strassen, fff Witry,10.2.1933
R: Liebeslieder]
M: 3/4
L: 1/16
K: G
D2G2 | G6DBB2A2 | G8z4 |
G3FE2D2C2E2 | E4D4z4 |
A3GF2E2D2C2 | B,2D2G4z4 |
B3GB3AG2c2 | c4G4z4 |
d3Be3Be2A2 | A4G4

@@@ Tune index: 8366
